img/icons/this/catalog/aroow-right.svg

<svg width="11" height="18" viewBox="0 0 11 18" fill="none" xmlns="http://www.w3.org/2000/svg">
<path d="M0.416143 0.365432C0.160599 0.599488 0.0170414 0.916894 0.0170414 1.24785C0.0170414 1.57881 0.160599 1.89621 0.416143 2.13027L7.63111 8.73655L0.416143 15.3428C0.285952 15.458 0.182106 15.5957 0.110666 15.748C0.0392269 15.9002 0.00162425 16.064 5.14663e-05 16.2297C-0.00152132 16.3955 0.0329682 16.5598 0.101507 16.7132C0.170045 16.8666 0.271261 17.0059 0.399247 17.1231C0.527234 17.2403 0.679428 17.333 0.84695 17.3958C1.01447 17.4585 1.19397 17.4901 1.37496 17.4887C1.55595 17.4872 1.73482 17.4528 1.90113 17.3874C2.06743 17.322 2.21784 17.2269 2.34359 17.1077L10.5223 9.61897C10.7778 9.38491 10.9214 9.0675 10.9214 8.73655C10.9214 8.40559 10.7778 8.08819 10.5223 7.85413L2.34359 0.365432C2.08797 0.131446 1.74131 0 1.37986 0C1.01842 0 0.671765 0.131446 0.416143 0.365432Z" fill="#92B69A"/>
</svg>

<svg width="11" height="18" fill="none" xmlns="http://www.w3.org/2000/svg"><path d="M.416.365a1.202 1.202 0 00-.399.883c0 .33.144.648.4.882L7.63 8.737.416 15.343c-.13.115-.234.253-.305.405a1.158 1.158 0 00-.01.965c.069.154.17.293.298.41.128.117.28.21.448.273a1.476 1.476 0 001.054-.009c.166-.065.317-.16.443-.28l8.178-7.488c.256-.234.4-.551.4-.882 0-.331-.144-.649-.4-.883L2.344.365A1.43 1.43 0 001.38 0a1.43 1.43 0 00-.964.365z" fill="#92B69A"/></svg>
